src/food-drink/food-sweet/1F370.svg

<?xml version="1.0" encoding="UTF-8"?>
<svg id="emoji" xmlns="http://www.w3.org/2000/svg" viewBox="0 0 72 72">
  <g id="grid">
    <path d="m68,4v64H4V4h64M72,0H0v72h72V0Z" fill="#b3b3b3"/>
    <path d="m12.923,10.9583h46.1539c1.0621,0,1.9231.861,1.9231,1.9231h0v46.1538c0,1.0621-.861,1.9231-1.9231,1.9231H12.9231c-1.0621,0-1.9231-.861-1.9231-1.9231h0V12.8813c0-1.062.861-1.923,1.923-1.923h0Z" fill="none" stroke="#00a5ff" stroke-miterlimit="10" stroke-width=".1"/>
    <rect x="16" y="4" width="40" height="64" rx="2.2537" ry="2.2537" fill="none" stroke="#00a5ff" stroke-miterlimit="10" stroke-width=".1"/>
    <rect x="4" y="16" width="64" height="40" rx="2.2537" ry="2.2537" fill="none" stroke="#00a5ff" stroke-miterlimit="10" stroke-width=".1"/>
    <circle cx="36" cy="36" r="29" fill="none" stroke="#00a5ff" stroke-miterlimit="10" stroke-width=".1"/>
  </g>
  <g id="color">
    <path d="m57.5367,18.0513l-16.5406,2.5102-2.0738.4311-31.9223,5.0074c-1.1045,0-2,.8965-2,2v12h1c2.7617,0,5-2.2383,5-4.999s2.2383-5.001,5-5.001,5,2.2393,5,5.001,2.2383,4.999,5,4.999,5-2.2383,5-4.999,2.2383-5.001,5-5.001,5,2.2393,5,5.001,2.2383,4.999,5,4.999,5-2.2383,5-4.999,2.2383-5.001,5-5.001,5,2.2393,5,5.001,2.2383,4.999,5,4.999h1v-12c0-4.7112-3.2599-8.6632-7.647-9.7215-.4344-.1048-1.3618-.1812-1.8163-.2272" fill="#fff"/>
    <circle cx="49.5" cy="18.0005" r="5" fill="#ea5a47"/>
    <path d="m67,39v20c0,1.1055-.8955,2-2,2H7c-1.1045,0-2-.8945-2-2v-20" fill="#fcea2b"/>
    <path d="m67,40h-1c-2.7607,0-5-2.2383-5-5s-2.2393-5-5-5-5,2.2383-5,5-2.2393,5-5,5-5-2.2383-5-5-2.2393-5-5-5-5,2.2383-5,5-2.2393,5-5,5-5-2.2383-5-5-2.2393-5-5-5-5,2.2383-5,5-2.2393,5-5,5h-1" fill="#fcea2b"/>
  </g>
  <g id="line">
    <path d="m67,28v31c0,1.1055-.8955,2-2,2H7c-1.1045,0-2-.8945-2-2v-31c0-1.1035.8955-2,2-2l33.9961-5.4385" fill="none" stroke="#000" stroke-linecap="round" stroke-linejoin="round" stroke-width="2"/>
    <path d="m58.0186,18.0513c5.0439.5102,8.9814,4.771,8.9814,9.9487" fill="none" stroke="#000" stroke-linecap="round" stroke-linejoin="round" stroke-width="2"/>
    <path d="m5,40h1c2.7617,0,5-2.2383,5-4.999s2.2383-5.001,5-5.001,5,2.2393,5,5.001,2.2383,4.999,5,4.999,5-2.2383,5-4.999,2.2383-5.001,5-5.001,5,2.2393,5,5.001,2.2383,4.999,5,4.999,5-2.2383,5-4.999,2.2383-5.001,5-5.001,5,2.2393,5,5.001,2.2383,4.999,5,4.999h1" fill="none" stroke="#000" stroke-linecap="round" stroke-linejoin="round" stroke-width="2"/>
    <line x1="5" y1="48" x2="67" y2="48" fill="none" stroke="#000" stroke-linecap="round" stroke-linejoin="round" stroke-width="2"/>
    <line x1="5" y1="52" x2="67" y2="52" fill="none" stroke="#000" stroke-linecap="round" stroke-linejoin="round" stroke-width="2"/>
    <circle cx="49.5" cy="18.0005" r="5" fill="none" stroke="#000" stroke-linecap="round" stroke-linejoin="round" stroke-width="2"/>
    <path d="m49.5,16c0-5.5229,4.4766-10,10-10" fill="none" stroke="#000" stroke-linecap="round" stroke-linejoin="round" stroke-width="2"/>
  </g>
</svg>

<svg id="emoji" viewBox="0 0 72 72" xmlns="http://www.w3.org/2000/svg">
  <g id="grid">
    <path fill="#b3b3b3" d="M68,4V68H4V4H68m4-4H0V72H72V0Z"/>
    <path fill="none" stroke="#00a5ff" stroke-miterlimit="10" stroke-width="0.1" d="M12.923,10.9583H59.0769A1.9231,1.9231,0,0,1,61,12.8814V59.0352a1.9231,1.9231,0,0,1-1.9231,1.9231H12.9231A1.9231,1.9231,0,0,1,11,59.0352V12.8813A1.923,1.923,0,0,1,12.923,10.9583Z"/>
    <rect x="16" y="4" rx="2.2537" width="40" height="64" fill="none" stroke="#00a5ff" stroke-miterlimit="10" stroke-width="0.1"/>
    <rect x="16" y="4" rx="2.2537" width="40" height="64" transform="translate(72) rotate(90)" fill="none" stroke="#00a5ff" stroke-miterlimit="10" stroke-width="0.1"/>
    <circle cx="36" cy="36" r="29" fill="none" stroke="#00a5ff" stroke-miterlimit="10" stroke-width="0.1"/>
  </g>
  <g id="color">
    <path fill="#FFFFFF" stroke="none" d="M58,17.0567l-17.7512,2.7278l-1.3265,1.2081L7,26c-1.1045,0-2,0.8965-2,2v12h1c2.7617,0,5-2.2383,5-4.999 C11,32.2393,13.2383,30,16,30c2.7617,0,5,2.2393,5,5.001C21,37.7617,23.2383,40,26,40c2.7617,0,5-2.2383,5-4.999 C31,32.2393,33.2383,30,36,30c2.7617,0,5,2.2393,5,5.001C41,37.7617,43.2383,40,46,40c2.7617,0,5-2.2383,5-4.999 C51,32.2393,53.2383,30,56,30c2.7617,0,5,2.2393,5,5.001C61,37.7617,63.2383,40,66,40h1V28c0-4.7112-3.2599-8.6632-7.647-9.7215 c-0.4344-0.1048-0.8799-1.1245-1.3344-1.1705"/>
    <circle cx="49.5" cy="18.0005" r="5" fill="#ea5a47" stroke="none"/>
    <path fill="#fcea2b" stroke="none" d="M67,39v20c0,1.1055-0.8955,2-2,2H7c-1.1045,0-2-0.8945-2-2V39"/>
    <path fill="#fcea2b" stroke="none" d="M67,40h-1c-2.7607,0-5-2.2383-5-5s-2.2393-5-5-5c-2.7607,0-5,2.2383-5,5s-2.2393,5-5,5 c-2.7607,0-5-2.2383-5-5s-2.2393-5-5-5c-2.7607,0-5,2.2383-5,5s-2.2393,5-5,5c-2.7607,0-5-2.2383-5-5s-2.2393-5-5-5 c-2.7607,0-5,2.2383-5,5s-2.2393,5-5,5H5"/>
  </g>
  <g id="hair"/>
  <g id="skin"/>
  <g id="skin-shadow"/>
  <g id="line">
    <path fill="none" stroke="#000000" stroke-linecap="round" stroke-linejoin="round" stroke-miterlimit="10" stroke-width="2" d="M67,28v31c0,1.1055-0.8955,2-2,2H7c-1.1045,0-2-0.8945-2-2V28c0-1.1035,0.8955-2,2-2l33.9961-5.4385"/>
    <path fill="none" stroke="#000000" stroke-linecap="round" stroke-linejoin="round" stroke-miterlimit="10" stroke-width="2" d="M58.0186,18.0513C63.0625,18.5615,67,22.8223,67,28"/>
    <path fill="none" stroke="#000000" stroke-linecap="round" stroke-linejoin="round" stroke-miterlimit="10" stroke-width="2" d="M5,40h1c2.7617,0,5-2.2383,5-4.999C11,32.2393,13.2383,30,16,30c2.7617,0,5,2.2393,5,5.001C21,37.7617,23.2383,40,26,40 c2.7617,0,5-2.2383,5-4.999C31,32.2393,33.2383,30,36,30c2.7617,0,5,2.2393,5,5.001C41,37.7617,43.2383,40,46,40 c2.7617,0,5-2.2383,5-4.999C51,32.2393,53.2383,30,56,30c2.7617,0,5,2.2393,5,5.001C61,37.7617,63.2383,40,66,40h1"/>
    <line x1="5" x2="67" y1="48" y2="48" fill="none" stroke="#000000" stroke-linecap="round" stroke-linejoin="round" stroke-miterlimit="10" stroke-width="2"/>
    <line x1="5" x2="67" y1="52" y2="52" fill="none" stroke="#000000" stroke-linecap="round" stroke-linejoin="round" stroke-miterlimit="10" stroke-width="2"/>
    <circle cx="49.5" cy="18.0005" r="5" fill="none" stroke="#000000" stroke-linecap="round" stroke-linejoin="round" stroke-miterlimit="10" stroke-width="2"/>
    <path fill="none" stroke="#000000" stroke-linecap="round" stroke-linejoin="round" stroke-miterlimit="10" stroke-width="2" d="M49.5,16c0-5.5229,4.4766-10,10-10"/>
  </g>
</svg>
